Newaita/actions/16/format-text-remove-formatting.svg

<?xml version="1.0" encoding="UTF-8"?>
<svg xmlns="http://www.w3.org/2000/svg" xmlns:xlink="http://www.w3.org/1999/xlink" width="16pt" height="16pt" viewBox="0 0 16 16" version="1.1">
<g id="surface1">
<path style=" stroke:none;fill-rule:nonzero;fill:rgb(25.882354%,25.882354%,25.882354%);fill-opacity:1;" d="M 7.9375 2.109375 C 7.03125 2.109375 6.195312 2.335938 5.527344 2.71875 L 6.476562 3.667969 C 6.847656 3.519531 7.28125 3.433594 7.746094 3.433594 L 8.128906 3.433594 C 9.488281 3.433594 10.585938 4.171875 10.585938 5.085938 L 10.585938 6.410156 L 11.90625 6.410156 L 11.90625 5.085938 C 11.90625 3.4375 10.136719 2.109375 7.9375 2.109375 Z M 4.320312 8.0625 C 4.09375 8.4375 3.96875 8.855469 3.96875 9.292969 L 3.96875 9.625 L 3.992188 9.625 C 4.210938 11.117188 5.886719 12.269531 7.9375 12.269531 C 8.820312 12.269531 9.632812 12.054688 10.289062 11.695312 L 9.332031 10.734375 C 8.976562 10.871094 8.566406 10.945312 8.128906 10.945312 L 7.746094 10.945312 C 6.386719 10.945312 5.292969 10.210938 5.292969 9.292969 C 5.292969 8.804688 5.605469 8.367188 6.101562 8.0625 Z M 10.871094 8.0625 L 11.90625 9.101562 L 11.90625 8.0625 Z M 10.585938 11.988281 L 10.585938 12.199219 L 10.792969 12.199219 Z M 10.585938 11.988281 "/>
<path style=" stroke:none;fill-rule:nonzero;fill:rgb(93.725491%,32.549021%,31.37255%);fill-opacity:1;" d="M 2.910156 2.910156 C 2.78125 3.039062 2.78125 3.246094 2.910156 3.378906 L 11.835938 12.304688 C 11.945312 12.410156 12.136719 12.394531 12.265625 12.265625 L 12.964844 11.5625 C 13.097656 11.433594 13.113281 11.242188 13.007812 11.132812 L 12.964844 11.09375 L 4.078125 2.207031 C 3.949219 2.078125 3.742188 2.078125 3.613281 2.207031 Z M 2.910156 2.910156 "/>
</g>
</svg>

<svg xmlns="http://www.w3.org/2000/svg" width="16pt" height="16pt" viewBox="0 0 16 16"><path d="M7.938 2.11c-.907 0-1.743.226-2.41.609l.949.949a3.434 3.434 0 0 1 1.27-.234h.382c1.36 0 2.457.738 2.457 1.652V6.41h1.32V5.086c0-1.649-1.77-2.977-3.969-2.977zM4.32 8.062a2.367 2.367 0 0 0-.351 1.23v.332h.023c.219 1.492 1.895 2.645 3.946 2.645.882 0 1.695-.215 2.351-.575l-.957-.96c-.355.136-.766.21-1.203.21h-.383c-1.36 0-2.453-.734-2.453-1.652 0-.488.312-.926.809-1.23zm6.551 0l1.035 1.039v-1.04zm-.285 3.925v.211h.207zm0 0" fill="#78909c"/><path d="M2.91 2.91a.332.332 0 0 0 0 .469l8.926 8.926c.11.105.3.09.43-.04l.699-.703c.133-.128.148-.32.043-.43l-.043-.038-8.887-8.887a.328.328 0 0 0-.465 0zm0 0" fill="#ef5350"/></svg>
